!!!!SEGMENT: pl-sa--l-1636--009_anonim--keyboard-piece.krn
!!!cenid: 17xx:716
!!!COM: Anonim
!!!COM-rismid: pe30004985
!!!CDT:
!!!CNT:
!!!OTL: Keyboard piece
!!!PDT:
!!!AGN: Secular
!!!SMS-siglum: PL-SA
!!!SMS-shelfmark: L 1636
!!!SMS-shelfwork: 009 W
!!!SMS-variant:
!!!SMS-altvar:
!!!NIFC-rismid: 1001076325
!!!URL-scan: http://repozytorium.nifc.pl/skany/pl-sa-nut--l1636
!!!ONB-nifc: 3v-4r, skan 0007, s. 1-5
**kern	**kern
*part2	*part1
*staff2	*staff1
*clefF4	*clefG2
*k[]	*k[]
*M2/2	*M2/2
*met(c|)	*met(c|)
=1	=1
*all\right	*all\right
1D 1AA 1DD	2dd 2a 2f/
.	16dd\LL
.	16cc#X\
.	16dd\
.	16ee\JJ
.	(8.ddT\L
.	16cc#\Jk)
=2	=2
*^	*^
*	*	*	*2\right
8D\L	2ryy	2dd 2a/	2f\
16E\L	.	.	.
16F\JJ	.	.	.
(8.Et\L	.	.	.
16D\Jk)	.	.	.
2A/	2C#X/	8ee\L	2ryy
.	.	16ff\L	.
.	.	16gg\JJ	.
.	.	(8.ffT\L	.
.	.	16ee\Jk)	.
*	*	*v	*v
=3	=3	=3
1A	4D\	16dd\LL
.	.	16ee\
.	.	16ff\
.	.	16gg\JJ
.	4C#X\	16aa\LL
.	.	16ee\
.	.	16ff\
.	.	16gg\JJ
*	*2\right	*
.	2D\	16ff\LL
.	.	16cc#X\
.	.	16dd\
.	.	16ee\JJ
.	.	(8.ddT\L
.	.	16cc#\Jk)
=4	=4	=4
2f#X/	2d\	16dd\LL
.	.	16a\
.	.	16b-X\
.	.	16cc\JJ
.	.	(8.b-T/L
.	.	16a/Jk)
!!LO:LB:g=original
2G/	2GG/	16b-X/LL
.	.	16f#X/
.	.	16g/
.	.	16a/JJ
.	.	(8.gT/L
.	.	16f#X/Jk)
=5	=5	=5
2G/	2GG/	16g/LL
.	.	16a/
.	.	16bn/
.	.	16cc#X/JJ
.	.	16dd\LL
.	.	16b\
.	.	16cc#X\
.	.	16dd\JJ
4E/	2AA\	16cc#X\LL
.	.	16a\
.	.	16b\
.	.	16cc#X\JJ
4D/	.	16dd\LL
.	.	16ee\
.	.	16ff\
.	.	16gg\JJ
=6	=6	=6
*	*	*^
16C#X/LL	2ryy	4aa/	4ee\
16AA/	.	.	.
16BB/	.	.	.
16C#/JJ	.	.	.
16D\LL	.	4ff/	4dd\
16E\	.	.	.
16F\	.	.	.
16G\JJ	.	.	.
2c#X/	2A\	16ee\LL	2ryy
.	.	16aa\	.
.	.	16gg\	.
.	.	16ff\JJ	.
.	.	16ee\LL	.
.	.	16dd\	.
.	.	16cc#X\	.
.	.	16b\JJ	.
!!LO:LB:g=original
=7	=7	=7	=7
*clefC4	*	*	*
16e/LL	2A\	2ee/	2cc#X\
16a/	.	.	.
16g/	.	.	.
16f/JJ	.	.	.
16e/LL	.	.	.
16d/	.	.	.
16c#X/	.	.	.
16B/JJ	.	.	.
2c#X/	2A\	8ee\L	2ryy
.	.	16ff\L	.
.	.	16gg\JJ	.
.	.	(8.ffT\L	.
.	.	16ee\Jk)	.
=8	=8	=8	=8
2d/	1A	8ff\L	2ryy
.	.	16gg\L	.
.	.	16aa\JJ	.
.	.	(8.gg\L	.
.	.	16ffT\Jk)	.
8e/L	.	2ee/	2a/
16f/L	.	.	.
16g/JJ	.	.	.
(8.fT/L	.	.	.
16e/Jk)	.	.	.
*	*	*v	*v
=9	=9	=9
8f/L	1A	2dd 2a/
16g/L	.	.
16a/JJ	.	.
8.gT/L	.	.
16f/Jk	.	.
2c#X/	.	16ee\LL
.	.	16aa\
.	.	16gg\
.	.	16aa\JJ
!	!	!LO:TX:a:t=P:problem:mixed beam
.	.	16ee\LL
.	.	16a/
.	.	16g/
.	.	16a/JJ
=10	=10	=10
*	*	*^
!	!	!LO:TX:a:t=P:problem:mixed beam	!
4d/	2A\	16d/LL	2ryy
.	.	16dd\	.
.	.	16cc\	.
.	.	16dd\JJ	.
4e/	.	16cc#X\LL	.
.	.	16a\	.
.	.	16g\	.
.	.	16a\JJ	.
!!LO:LB:g=original
*clefF4	*	*	*
!LO:TX:a:t=P:problem:mixed beam	!	!	!
16D/LL	2ryy	2dd 2a/	2f\
16A\	.	.	.
16G\	.	.	.
16A\JJ	.	.	.
16F\LL	.	.	.
16D\	.	.	.
16C#X\	.	.	.
16D\JJ	.	.	.
*	*	*v	*v
=11	=11	=11
2G 2D 2GG/	2ryy	16d/LL
.	.	16b-X/
.	.	16a/
.	.	16b-/JJ
.	.	16d/LL
.	.	16g/
.	.	16f/
.	.	16g/JJ
16E/LL	2AA\	2e 2c#X/
16A/	.	.
16G/	.	.
16A/JJ	.	.
16E/LL	.	.
16G/	.	.
16F/	.	.
16E/JJ	.	.
=12	=12	=12
2F/	1AA	8d/L
.	.	16e/L
.	.	16f/JJ
.	.	8.et/L
.	.	16d/Jk
8E/L	.	2e 2c#X/
16F/L	.	.
16G/JJ	.	.
8.F/L	.	.
16E/Jk	.	.
*	*	*clefC1
=13	=13	=13
*	*	*Xtuplet
4D/	2AA\	12f/L
.	.	12g/
.	.	12a/J
4BB/	.	12d/L
.	.	12e/
.	.	12f/J
!!LO:PB:g=original
4C#X/	2AA\	12e/L
.	.	12f/
.	.	12g/J
4E/	.	12c#X/L
.	.	12d/
.	.	12e/J
=14	=14	=14
*Xtuplet	*	*
12F/L	1AA	4a\
12G/	.	.
12A/J	.	.
12D/L	.	4f/
12E/	.	.
12F/J	.	.
12E/L	.	4g/
12F/	.	.
12G/J	.	.
12C#X/L	.	4e/
12D/	.	.
12E/J	.	.
=15	=15	=15
4F/	1AA	12a\L
.	.	12g\
.	.	12a\J
4D/	.	12f\L
.	.	12g\
.	.	12a\J
4E/	.	12g/L
.	.	12f/
.	.	12g/J
4C#X/	.	12e/L
.	.	12f/
.	.	12g/J
=16	=16	=16
*	*	*^
2D/	1AA	8f/L	2ryy
.	.	16g/L	.
.	.	16f/JJ	.
.	.	8.e/L	.
.	.	16d/Jk	.
8E/L	.	2e/	4.A\
16F/L	.	.	.
16E/JJ	.	.	.
8D/L	.	.	.
8C#X/J	.	.	8G\
*v	*v	*	*
*	*v	*v
=17	=17
!LO:TX:a:t=P:problem:kreska taktowa :||:	!LO:TX:a:t=P:problem:kreska taktowa :||:
1D 1AA 1DD	1d 1A 1F#X
==	==
*-	*-
!!!system-decoration: s1,s2
!!!ENC: Marta Lawrence
!!!END: 2020-12-07
!!!ENC: Andrzej Borzym
!!!END: 2020-06-11
